!!!Genre:	Freylekhs
!!!Mode:	Altered Dorian
!!!Listening/dance:	dance
!!!:	*B-:
!!!One_Mode:	no
**kern
*part1
*staff1
*clefG2
*k[b-]
*g:dor
*M2/4
=1-
*>A
(>8qff#X/
8gg)
4gg
8gg
=2
4g
4ff
=3
(16ffLL
16eeJ
8ddJ)
(16ddLL
16cc#XJ
8b-J)
=4
(16b-LL
16aJ
8gJ)
4dd
=5
8gg
4gg
8gg
=6
4g
4ff
=7
(16ffLL
16eeJ
8ddJ)
(16ddLL
16cc#XJ
8b-J)
=8
16b-LL
16aJ
8gJ
8g
16r
16dd
=9:|!
16b-LL
16aJ
8gJ
8gL
8b-J
=10!|:
*>B
(>16qb-/LL
16qcc#X/JJ
8aL)
8b-
8cc#
8ddJ
=11
4.a
8ff
=12
(>16ffLL
16eeJ
8ddJ)
(>16ddLL
16cc#XJ
8b-J)
=13
16b-LL
16aJ
8gJ
4dd
=14
8aL
8b-
8cc#X
8ddJ
=15
4.a
8ff
=16
(>16ffLL
16eeJ
8ddJ)
(>16ddLL
16cc#XJ
8b-J)
=17
16b-LL
16aJ
8gJ
8g
24b-LL
24ccn
24b-JJ
=18:|!
16b-LL
16aJ
8gJ
8g
8r
*>bM
*-
